img/trainer.svg

<svg fill="none" height="16" viewBox="0 0 16 16" width="16" xmlns="http://www.w3.org/2000/svg"><g fill="#1c8aa9"><path d="m10.7501 13.7287c-.0139.1721-.0264.3195-.0361.4668-.0166.2424-.0347.4847-.043.7271 0 .0854-.0514.0771-.1083.0771h-2.91375c-.734 0-1.46943 0-2.20482 0-.08603 0-.11378-.0192-.11933-.1101-.0222-.4132-.05411-.8263-.08325-1.2477-.04578.0744-.08046.1377-.12347.1956-.07014.0974-.1608.1786-.26567.2378s-.22144.0951-.34168.1052c-.12023.0101-.24123-.0059-.35463-.0468s-.21646-.1058-.30208-.1902c-.55502-.5508-1.11005-1.1017-1.66507-1.6525-.16203-.1547-.28799-.3428-.36907-.5509-.05651-.1669-.0791-.3432-.06648-.5189.01262-.1756.06023-.347.14003-.5043.1837-.3692.39376-.72495.62856-1.06447.44263-.7037.87135-1.41842 1.3778-2.08081.21458-.29415.49543-.53449.82017-.70185.32473-.16736.68439-.25711 1.05026-.26212h.28583c.02318-.0031.04671.00232.06614.01526s.0334.0325.03929.05497c.32561.77577.65214 1.55063.9796 2.32456.13181.31123.26089.62382.39409.93367.01101.024.01669.05008.01669.07649 0 .0263-.00568.0524-.01669.0764-.15124.3938-.29974.7891-.44821 1.1843-.06521.1735-.02217.2561.15405.3167l.82004.2754c.03012.0165.0637.0257.09807.0268.03436.0012.06852-.0056.09972-.02.0312-.0143.05859-.0357.0799-.0625.02132-.0268.03597-.0582.04281-.0916.17668-.4636.35197-.9277.52588-1.3923.01721-.0287.02702-.0611.02862-.0945s-.00509-.0666-.01948-.0968-.036-.0564-.06301-.0764c-.027-.0199-.05856-.033-.09184-.038-.06799-.02339-.13875-.04955-.20258-.06745-.06382-.01791-.08325-.0551-.05411-.12396.1665-.38834.32746-.77805.49119-1.16777.27751-.64449.54533-1.28759.81174-1.92794.01185-.04035.03773-.07523.07305-.09843.03531-.0232.07773-.03322.11979-.02828.5938-.0326 1.1794.1494 1.6484.51229.2428.19117.452.42105.6188.68028.58.84554 1.1253 1.71312 1.6651 2.58486.1597.2405.2648.5125.308.7973.0217.1802.0035.3628-.0533.5353-.0568.1724-.1508.3305-.2755.4631-.0666.0771-.1388.1501-.2082.2231-.5078.5123-1.0166 1.0241-1.5263 1.5355-.0892.1036-.2025.1841-.3302.2345-.1276.0504-.2656.0692-.4022.0549-.1366-.0144-.2676-.0615-.3818-.1374-.1141-.0758-.2079-.1781-.2733-.298zm.401-4.30075-.0222.01103-.3095 3.47032c.0666-.0703.1097-.1198.1568-.168.4774-.4811.9552-.9617 1.4334-1.4418.0121-.0082.0222-.0189.0295-.0315.0072-.0126.0115-.0267.0125-.0412.0009-.0145-.0015-.0291-.0071-.0425s-.0142-.0254-.0252-.035c-.3108-.4131-.6175-.8386-.9269-1.25862zm-6.28836 0c-.04856.01928-.06103.05373-.08045.07989-.401.55086-.80063 1.09066-1.2044 1.63186-.0555.0744-.04301.1129.01804.1735.47037.4627.93799.931 1.40837 1.3937.05134.0495.08323.1198.1651.1652z"/><path d="m7.99363 5.3544c-.43352-.00054-.85714-.12855-1.2174-.36787-.36027-.23932-.64101-.57923-.80679-.97679-.16577-.39756-.20913-.83495-.12462-1.25696.08451-.422.29308-.80969.59943-1.11412s.69673-.51195 1.12183-.59635c.42509-.084409.86586-.04192 1.26664.1221.40078.16403.74359.44223.98518.79948.2416.35726.3711.77753.3722 1.20779.002.28697-.0534.57148-.163.83703-.10965.26555-.2713.50685-.47563.7099s-.44726.3638-.71468.47294-.55402.1645-.84316.16285z"/><path d="m7.99387 9.62311-.42319-1.00391-.79925-1.89491c-.04995-.11981-.04992-.1198.07495-.1198h2.30607c.11517 0 .11656.00001.07216.10467l-1.17802 2.80103c-.01526.03029-.02913.05921-.05272.11292z"/></g></svg>

<svg width="16" height="16" viewBox="0 0 16 16" fill="none" xmlns="http://www.w3.org/2000/svg">
<path d="M10.7501 13.7287C10.7362 13.9008 10.7237 14.0482 10.714 14.1955C10.6974 14.4379 10.6793 14.6802 10.671 14.9226C10.671 15.008 10.6196 14.9997 10.5627 14.9997H7.64895C6.91495 14.9997 6.17952 14.9997 5.44413 14.9997C5.3581 14.9997 5.33035 14.9805 5.3248 14.8896C5.3026 14.4764 5.27069 14.0633 5.24155 13.6419C5.19577 13.7163 5.16109 13.7796 5.11808 13.8375C5.04794 13.9349 4.95728 14.0161 4.85241 14.0753C4.74754 14.1345 4.63097 14.1704 4.51073 14.1805C4.3905 14.1906 4.2695 14.1746 4.1561 14.1337C4.0427 14.0928 3.93964 14.0279 3.85402 13.9435C3.299 13.3927 2.74397 12.8418 2.18895 12.291C2.02692 12.1363 1.90096 11.9482 1.81988 11.7401C1.76337 11.5732 1.74078 11.3969 1.7534 11.2212C1.76602 11.0456 1.81363 10.8742 1.89343 10.7169C2.07713 10.3477 2.28719 9.99195 2.52199 9.65243C2.96462 8.94873 3.39334 8.23401 3.89979 7.57162C4.11437 7.27747 4.39522 7.03713 4.71996 6.86977C5.04469 6.70241 5.40435 6.61266 5.77022 6.60765C5.86596 6.60765 5.96031 6.60765 6.05605 6.60765C6.07923 6.60455 6.10276 6.60997 6.12219 6.62291C6.14162 6.63585 6.15559 6.65541 6.16148 6.67788C6.48709 7.45365 6.81362 8.22851 7.14108 9.00244C7.27289 9.31367 7.40197 9.62626 7.53517 9.93611C7.54618 9.96011 7.55186 9.98619 7.55186 10.0126C7.55186 10.0389 7.54618 10.065 7.53517 10.089C7.38393 10.4828 7.23543 10.8781 7.08696 11.2733C7.02175 11.4468 7.06479 11.5294 7.24101 11.59L8.06105 11.8654C8.09117 11.8819 8.12475 11.8911 8.15912 11.8922C8.19348 11.8934 8.22764 11.8866 8.25884 11.8722C8.29004 11.8579 8.31743 11.8365 8.33874 11.8097C8.36006 11.7829 8.37471 11.7515 8.38155 11.7181C8.55823 11.2545 8.73352 10.7904 8.90743 10.3258C8.92464 10.2971 8.93445 10.2647 8.93605 10.2313C8.93765 10.1979 8.93096 10.1647 8.91657 10.1345C8.90218 10.1043 8.88057 10.0781 8.85356 10.0581C8.82656 10.0382 8.795 10.0251 8.76172 10.0201C8.69373 9.99671 8.62297 9.97055 8.55914 9.95265C8.49532 9.93474 8.47589 9.89755 8.50503 9.82869C8.67153 9.44035 8.83249 9.05064 8.99622 8.66092C9.27373 8.01643 9.54155 7.37333 9.80796 6.73298C9.81981 6.69263 9.84569 6.65775 9.88101 6.63455C9.91632 6.61135 9.95874 6.60133 10.0008 6.60627C10.5946 6.57367 11.1802 6.75567 11.6492 7.11856C11.892 7.30973 12.1012 7.53961 12.268 7.79884C12.848 8.64438 13.3933 9.51196 13.9331 10.3837C14.0928 10.6242 14.1979 10.8962 14.2411 11.181C14.2628 11.3612 14.2446 11.5438 14.1878 11.7163C14.131 11.8887 14.037 12.0468 13.9123 12.1794C13.8457 12.2565 13.7735 12.3295 13.7041 12.4025C13.1963 12.9148 12.6875 13.4266 12.1778 13.938C12.0886 14.0416 11.9753 14.1221 11.8476 14.1725C11.72 14.2229 11.582 14.2417 11.4454 14.2274C11.3088 14.213 11.1778 14.1659 11.0636 14.09C10.9495 14.0142 10.8557 13.9119 10.7903 13.792L10.7501 13.7287ZM11.1511 9.42795L11.1289 9.43898L10.8194 12.9093C10.886 12.839 10.9291 12.7895 10.9762 12.7413C11.4536 12.2602 11.9314 11.7796 12.4096 11.2995C12.4217 11.2913 12.4318 11.2806 12.4391 11.268C12.4463 11.2554 12.4506 11.2413 12.4516 11.2268C12.4525 11.2123 12.4501 11.1977 12.4445 11.1843C12.4389 11.1709 12.4303 11.1589 12.4193 11.1493C12.1085 10.7362 11.8018 10.3107 11.4924 9.89068L11.1511 9.42795ZM4.86274 9.42795C4.81418 9.44723 4.80171 9.48168 4.78229 9.50784C4.38129 10.0587 3.98166 10.5985 3.57789 11.1397C3.52239 11.2141 3.53488 11.2526 3.59593 11.3132C4.0663 11.7759 4.53392 12.2442 5.0043 12.7069C5.05564 12.7564 5.08753 12.8267 5.1694 12.8721L4.86274 9.42795Z" fill="#1C8AA9"/>
<path d="M7.99363 5.3544C7.56011 5.35386 7.13649 5.22585 6.77623 4.98653C6.41596 4.74721 6.13522 4.4073 5.96944 4.00974C5.80367 3.61218 5.76031 3.17479 5.84482 2.75278C5.92933 2.33078 6.1379 1.94309 6.44425 1.63866C6.7506 1.33423 7.14098 1.12671 7.56608 1.04231C7.99117 0.957901 8.43194 1.00039 8.83272 1.16441C9.2335 1.32844 9.57631 1.60664 9.8179 1.96389C10.0595 2.32115 10.189 2.74142 10.1901 3.17168C10.1921 3.45865 10.1367 3.74316 10.0271 4.00871C9.91745 4.27426 9.7558 4.51556 9.55147 4.71861C9.34714 4.92166 9.10421 5.08241 8.83679 5.19155C8.56937 5.30069 8.28277 5.35605 7.99363 5.3544Z" fill="#1C8AA9"/>
<path d="M7.99387 9.62311L7.57068 8.6192L6.77143 6.72429C6.72148 6.60448 6.72151 6.60449 6.84638 6.60449H9.15245C9.26762 6.60449 9.26901 6.6045 9.22461 6.70916L8.04659 9.51019C8.03133 9.54048 8.01746 9.5694 7.99387 9.62311Z" fill="#1C8AA9"/>
</svg>
